src/assets/icons/payment.svg

<svg width="32" height="32" viewBox="0 0 32 32" fill="none" xmlns="http://www.w3.org/2000/svg">
<path d="M6.66667 28C5.93333 28 5.30556 27.7389 4.78333 27.2167C4.26111 26.6944 4 26.0667 4 25.3333V6.66667C4 5.93333 4.26111 5.30556 4.78333 4.78333C5.30556 4.26111 5.93333 4 6.66667 4H25.3333C26.0667 4 26.6944 4.26111 27.2167 4.78333C27.7389 5.30556 28 5.93333 28 6.66667V10H25.3333V6.66667H6.66667V25.3333H25.3333V22H28V25.3333C28 26.0667 27.7389 26.6944 27.2167 27.2167C26.6944 27.7389 26.0667 28 25.3333 28H6.66667ZM17.3333 22.6667C16.6 22.6667 15.9722 22.4056 15.45 21.8833C14.9278 21.3611 14.6667 20.7333 14.6667 20V12C14.6667 11.2667 14.9278 10.6389 15.45 10.1167C15.9722 9.59444 16.6 9.33333 17.3333 9.33333H26.6667C27.4 9.33333 28.0278 9.59444 28.55 10.1167C29.0722 10.6389 29.3333 11.2667 29.3333 12V20C29.3333 20.7333 29.0722 21.3611 28.55 21.8833C28.0278 22.4056 27.4 22.6667 26.6667 22.6667H17.3333ZM26.6667 20V12H17.3333V20H26.6667ZM21.3333 18C21.8889 18 22.3611 17.8056 22.75 17.4167C23.1389 17.0278 23.3333 16.5556 23.3333 16C23.3333 15.4444 23.1389 14.9722 22.75 14.5833C22.3611 14.1944 21.8889 14 21.3333 14C20.7778 14 20.3056 14.1944 19.9167 14.5833C19.5278 14.9722 19.3333 15.4444 19.3333 16C19.3333 16.5556 19.5278 17.0278 19.9167 17.4167C20.3056 17.8056 20.7778 18 21.3333 18Z" fill="#F5F5F5"/>
</svg>

<svg width="32" height="32" fill="none" xmlns="http://www.w3.org/2000/svg"><path d="M6.667 28a2.57 2.57 0 0 1-1.884-.783A2.57 2.57 0 0 1 4 25.333V6.667q0-1.1.783-1.884A2.57 2.57 0 0 1 6.667 4h18.666q1.1 0 1.884.783.783.784.783 1.884V10h-2.667V6.667H6.667v18.666h18.666V22H28v3.333q0 1.1-.783 1.884a2.57 2.57 0 0 1-1.884.783zm10.666-5.333a2.57 2.57 0 0 1-1.883-.784A2.57 2.57 0 0 1 14.667 20v-8q0-1.1.783-1.883a2.57 2.57 0 0 1 1.883-.784h9.334q1.099 0 1.883.784.783.783.783 1.883v8q0 1.1-.783 1.883a2.57 2.57 0 0 1-1.883.784zM26.667 20v-8h-9.334v8zm-5.334-2q.834 0 1.417-.583.583-.584.583-1.417t-.583-1.417A1.93 1.93 0 0 0 21.333 14q-.833 0-1.416.583A1.93 1.93 0 0 0 19.333 16q0 .834.584 1.417.583.583 1.416.583" fill="#F5F5F5"/></svg>
